tools/download-figma-icons/icons/solid/energy-fire.svg

<svg width="24" height="24" viewBox="0 0 24 24" fill="none" xmlns="http://www.w3.org/2000/svg">
<path fill-rule="evenodd" clip-rule="evenodd" d="M20.9985 15.8467C21.1185 22.7152 14.6543 23.9752 14.586 23.9834C14.5417 23.9902 14.4967 23.9977 14.4517 23.9977C14.1967 23.9977 13.9493 23.8627 13.8142 23.6384C13.6567 23.3752 13.671 23.0377 13.8585 22.7909C13.8742 22.7752 14.8267 21.4709 14.3243 20.1959C14.1517 19.7459 13.671 19.2734 13.1693 18.7784C12.3368 17.9609 11.2793 16.9192 11.0092 15.3442C10.0268 16.4167 9.48 17.5492 9.38175 18.7342C9.19425 21.0134 10.7325 22.7227 10.7468 22.7377C10.9643 22.9784 11.0017 23.3152 10.8593 23.6002C10.7092 23.8777 10.4018 24.0427 10.0868 23.9902C10.0125 23.9752 3 22.8802 3 15.8542C3 9.95242 6.0975 4.81567 12.4643 0.143923C12.6735 -0.00607707 12.9443 -0.0435771 13.1842 0.0539229C13.4235 0.151423 13.5968 0.368923 13.641 0.623923C14.3167 4.55317 16.251 7.14067 17.961 9.41992C19.4985 11.4749 20.9527 13.4174 20.9985 15.8467Z" fill="black"/>
</svg>

<svg width="24" height="24" viewBox="0 0 24 24" fill="none" xmlns="http://www.w3.org/2000/svg"><path fill-rule="evenodd" clip-rule="evenodd" d="M20.998 15.847c.12 6.868-6.344 8.128-6.412 8.136-.044.007-.09.015-.134.015a.75.75 0 0 1-.594-1.207c.016-.016.969-1.32.466-2.595-.172-.45-.653-.923-1.155-1.418-.832-.817-1.89-1.859-2.16-3.434-.982 1.073-1.529 2.205-1.627 3.39-.188 2.28 1.35 3.989 1.365 4.004.217.24.255.577.112.862a.746.746 0 0 1-.772.39C10.012 23.975 3 22.88 3 15.854 3 9.952 6.098 4.816 12.464.144a.75.75 0 0 1 .72-.09c.24.097.413.315.457.57.676 3.93 2.61 6.517 4.32 8.796 1.538 2.055 2.992 3.997 3.038 6.427Z" fill="currentColor"/></svg>
